X:59
T:Spanish Lady
Z:Boston
M:2/4
R:polka
E:10
K:D
AG|:F2A2 A2Bc|d3c d2ef|g2e2 f2d2|B2A2 ABAG|F2A2 A2Bc|d3c d2ef|g2e2 f2d2|B2A2 A4:|
f2a2 abaf|e2d2 d2e2|f2a2 a3f|e2d2 e4|f2a2 abaf|e2d2  d2ef|g2e2 f2d2|B2A2 A4:|
